X:345
T: HOLDE NACHT DEIN DUNKLER SCHLEIER
N: F0592
O: Europa, Mitteleuropa, Deutschland
R: Soldaten - Lied
M: 4/4
L: 1/16
K: Bb
F3F | B6B2B2B2B2B2 | d2c2B2A2G4
F4 | B6B2B2d2f3d | d4c4z4
F2F2 | e6e2e2e2f3e | e2d2d4z4
B2B2 | G6e2f2e2d2c2 | c4B4z4

